src/css/fonts/SVGs/iota_icons/go_shimmer_icon.svg

<svg width="48" height="48" viewBox="0 0 48 48" fill="none" xmlns="http://www.w3.org/2000/svg">
<path fill-rule="evenodd" clip-rule="evenodd" d="M28.4708 28.0283C29.4154 27.5229 30 26.5721 30 25.5412V22.4588C30 21.4279 29.4154 20.4771 28.4708 19.9717L25.4708 18.3665C24.5576 17.8778 23.4424 17.8778 22.5292 18.3665L19.5292 19.9717C18.5846 20.4771 18 21.4279 18 22.4588V25.5412C18 26.5721 18.5846 27.5229 19.5292 28.0283L22.5292 29.6335C23.4424 30.1222 24.5576 30.1222 25.4708 29.6335L28.4708 28.0283ZM28 22.4588V25.5412C28 25.799 27.8534 26.0904 27.5273 26.2649L24.5273 27.8701C24.2035 28.0433 23.7965 28.0433 23.4727 27.8701L20.4727 26.2649C20.1466 26.0904 20 25.799 20 25.5412V22.4588C20 22.201 20.1466 21.9096 20.4727 21.7351L23.4727 20.1299C23.7965 19.9567 24.2035 19.9567 24.5273 20.1299L27.5273 21.7351C27.8534 21.9096 28 22.201 28 22.4588Z" fill="black"/>
<path fill-rule="evenodd" clip-rule="evenodd" d="M35.2675 33.1524C36.6499 32.3481 37.5 30.872 37.5 29.2758V18.7242C37.5 17.128 36.6499 15.6519 35.2675 14.8476L26.2675 9.6114C24.8663 8.7962 23.1337 8.7962 21.7325 9.6114L12.7325 14.8476C11.3501 15.6519 10.5 17.128 10.5 18.7242V29.2758C10.5 30.872 11.3501 32.3481 12.7325 33.1524L21.7325 38.3886C23.1337 39.2038 24.8663 39.2038 26.2675 38.3886L35.2675 33.1524ZM35.5 18.7242V29.2758C35.5 30.1581 35.0302 30.9766 34.2617 31.4237L25.2617 36.6599C24.4823 37.1134 23.5177 37.1134 22.7383 36.6599L13.7383 31.4237C12.9698 30.9766 12.5 30.1581 12.5 29.2758V18.7242C12.5 17.8419 12.9698 17.0234 13.7383 16.5763L22.7383 11.3401C23.5177 10.8866 24.4823 10.8866 25.2617 11.3401L34.2617 16.5763C35.0302 17.0234 35.5 17.8419 35.5 18.7242Z" fill="black"/>
</svg>

<svg xmlns="http://www.w3.org/2000/svg" viewBox="0 0 48 48">
  <path fill-rule="evenodd" clip-rule="evenodd" d="M28.47 28.028c.945-.505 1.53-1.456 1.53-2.487V22.46c0-1.031-.585-1.982-1.53-2.487l-3-1.606a3.134 3.134 0 0 0-2.94 0l-3 1.606c-.945.505-1.53 1.456-1.53 2.487v3.082c0 1.031.585 1.982 1.53 2.487l3 1.606a3.134 3.134 0 0 0 2.94 0l3-1.606Zm-.47-5.57v3.083c0 .258-.147.55-.473.724l-3 1.605c-.324.173-.73.173-1.054 0l-3-1.605c-.326-.175-.473-.466-.473-.724V22.46c0-.258.147-.55.473-.724l3-1.605c.324-.173.73-.173 1.054 0l3 1.605c.326.175.473.466.473.724Z"/>
  <path fill-rule="evenodd" clip-rule="evenodd" d="M35.267 33.152a4.486 4.486 0 0 0 2.233-3.876V18.724c0-1.596-.85-3.072-2.233-3.876l-9-5.237a4.51 4.51 0 0 0-4.534 0l-9 5.237a4.486 4.486 0 0 0-2.233 3.876v10.552c0 1.596.85 3.072 2.232 3.876l9 5.237a4.51 4.51 0 0 0 4.535 0l9-5.237Zm.233-14.428v10.552c0 .882-.47 1.7-1.238 2.148l-9 5.236a2.51 2.51 0 0 1-2.524 0l-9-5.236a2.486 2.486 0 0 1-1.238-2.148V18.724c0-.882.47-1.7 1.238-2.148l9-5.236a2.51 2.51 0 0 1 2.524 0l9 5.236a2.486 2.486 0 0 1 1.238 2.148Z"/>
</svg>
